icons/networks/logos/gnosis.svg

<svg width="85" height="20" viewBox="0 0 85 20" fill="none" xmlns="http://www.w3.org/2000/svg">
<g clip-path="url(#clip0_115_284)">
<path d="M2.63369 9.0295C2.63369 8.54543 2.79303 8.10524 3.06849 7.75619L5.98439 10.6708C5.62927 10.9462 5.18841 11.1055 4.71041 11.1055C3.55863 11.1049 2.62762 10.1745 2.63369 9.0295ZM11.3071 11.0988C12.4529 11.1049 13.3839 10.1738 13.3839 9.02274C13.3839 8.54543 13.2245 8.10456 12.9491 7.74944L10.0332 10.664C10.3822 10.9394 10.8231 11.0988 11.3071 11.0988ZM13.5614 7.14924C13.9901 7.6637 14.2473 8.3125 14.2473 9.03489C14.2473 10.6572 12.9302 11.9737 11.3071 11.9737C10.5908 11.9737 9.93527 11.7165 9.4208 11.2879L8.00574 12.7023L6.59066 11.2879C6.0762 11.7165 5.42673 11.9737 4.70433 11.9737C3.08131 11.9737 1.76412 10.6572 1.76412 9.03489C1.76412 8.31858 2.02135 7.66303 2.45006 7.14924L1.78843 6.48829L1.15785 5.85772C0.422634 7.06958 0 8.48399 0 10.0031C0 14.4238 3.58294 18 7.99964 18C12.4157 18 15.9993 14.4177 15.9993 10.0031C16.0115 8.47859 15.5889 7.06418 14.8536 5.85772L13.5614 7.14924ZM7.99964 11.4782L1.6534 5.13465C1.83096 4.9078 2.02068 4.68771 2.21714 4.47977C3.67476 2.95532 5.72716 2 8.00574 2C10.2843 2 12.3421 2.95532 13.7943 4.47977C13.9962 4.68163 14.1866 4.90848 14.3459 5.12857L7.99964 11.4782ZM3.08671 5.07996L8.00509 9.99695L12.9234 5.07996C11.6191 3.76345 9.8792 3.04105 8.00509 3.04105C6.13089 3.04105 4.39783 3.76345 3.08671 5.07996ZM17.7722 10.0057V10.024C17.7722 14.4285 21.3457 17.9986 25.7537 17.9986H29.1266V15.93H25.8076C22.4955 15.93 19.8185 13.2119 19.8895 9.88625C19.959 6.65303 22.6791 4.10169 25.9164 4.10169H29.1266V2.05334H25.7313C21.3363 2.05334 17.7722 5.61399 17.7722 10.0057ZM60.1889 2.05334H68.7597V17.9993H60.1889V2.05334ZM61.7059 6.85692C61.7059 8.38609 62.9455 9.62567 64.4746 9.62567C66.0038 9.62567 67.2433 8.38609 67.2433 6.85692C67.2433 5.32774 66.0038 4.08819 64.4746 4.08819C62.9455 4.08819 61.7059 5.32774 61.7059 6.85692ZM40.7531 7.39905C40.7531 7.83991 40.5972 8.21191 40.2859 8.51504C39.974 8.81885 39.6054 8.97076 39.1801 8.97076H34.4379C33.997 8.97076 33.6244 8.81953 33.3206 8.51504C33.0161 8.21123 32.8649 7.83924 32.8649 7.39905V2.05334H30.8131V17.9993H32.8649V12.5476C32.8649 12.1074 33.0167 11.7354 33.3206 11.4316C33.6244 11.1278 33.997 10.9759 34.4379 10.9759H39.1801C39.6054 10.9759 39.974 11.1278 40.2859 11.4316C40.5972 11.7354 40.7531 12.1074 40.7531 12.5476V17.9993H42.7825V2.05334H40.7531V7.39905ZM77.8851 2.05334H70.4455V17.9993H72.4972V9.47505C72.4972 6.50787 74.9047 4.10236 77.8742 4.10236C80.8436 4.10236 83.2509 6.50787 83.2509 9.47505V17.9993H85.2851V9.44807C85.2858 5.36419 81.9724 2.05334 77.8851 2.05334ZM52.678 2.9013L59.4442 17.9993H43.5441L50.3778 2.9013C50.6486 2.30043 51.032 2 51.5276 2C52.0238 2 52.4073 2.30043 52.678 2.9013ZM51.5276 9.84305C49.9984 9.84305 48.7588 11.0825 48.7588 12.6118C48.7588 14.1409 49.9984 15.3805 51.5276 15.3805C53.0567 15.3805 54.2963 14.1409 54.2963 12.6118C54.2963 11.0825 53.0567 9.84305 51.5276 9.84305Z" fill="#133629"/>
</g>
<defs>
<clipPath id="clip0_115_284">
<rect width="85" height="20" fill="white"/>
</clipPath>
</defs>
</svg>

<svg viewBox="0 0 85 20" fill="none" xmlns="http://www.w3.org/2000/svg">
  <g clip-path="url(#gnosis_svg__a)">
    <path d="M2.634 9.03c0-.485.159-.925.434-1.274l2.916 2.915a2.067 2.067 0 0 1-1.274.434A2.07 2.07 0 0 1 2.634 9.03Zm8.673 2.069a2.07 2.07 0 0 0 2.077-2.076c0-.478-.16-.918-.435-1.274l-2.916 2.915c.35.275.79.435 1.274.435Zm2.254-3.95a2.94 2.94 0 0 1-4.14 4.139l-1.415 1.414-1.415-1.414a2.94 2.94 0 0 1-4.14-4.139l-.663-.66-.63-.631A7.997 7.997 0 0 0 8 18c4.416 0 8-3.582 8-7.997a7.805 7.805 0 0 0-1.146-4.145L13.56 7.149ZM8 11.48 1.653 5.134a9.34 9.34 0 0 1 .564-.655A7.986 7.986 0 0 1 8.006 2c2.278 0 4.336.955 5.788 2.48.202.202.393.428.552.649L8 11.479ZM3.087 5.08l4.918 4.917 4.918-4.917a6.856 6.856 0 0 0-4.918-2.039A6.868 6.868 0 0 0 3.087 5.08Zm14.685 4.926v.018c0 4.405 3.574 7.975 7.982 7.975h3.373V15.93h-3.32a5.917 5.917 0 0 1-5.917-6.044c.069-3.233 2.79-5.784 6.026-5.784h3.21V2.053h-3.395c-4.395 0-7.959 3.561-7.959 7.953ZM60.19 2.053h8.57V18h-8.57V2.053Zm1.517 4.804a2.769 2.769 0 1 0 5.537 0 2.769 2.769 0 0 0-5.537 0Zm-20.953.542c0 .44-.156.813-.467 1.116-.312.304-.68.456-1.106.456h-4.742c-.441 0-.814-.151-1.117-.456a1.515 1.515 0 0 1-.456-1.116V2.053h-2.052V18h2.052v-5.451c0-.44.152-.813.456-1.116a1.52 1.52 0 0 1 1.117-.456h4.742c.425 0 .794.152 1.106.456a1.5 1.5 0 0 1 .467 1.116v5.451h2.03V2.053h-2.03V7.4Zm37.132-5.346h-7.44V18h2.052V9.475a5.375 5.375 0 0 1 5.377-5.373 5.375 5.375 0 0 1 5.377 5.373v8.524h2.034V9.45a7.397 7.397 0 0 0-7.4-7.396Zm-25.207.848L59.444 18h-15.9l6.834-15.098c.27-.6.654-.901 1.15-.901.496 0 .88.3 1.15.901Zm-1.15 6.942a2.769 2.769 0 1 0 0 5.537 2.769 2.769 0 0 0 0-5.537Z" fill="#133629"/>
  </g>
  <defs>
    <clipPath id="gnosis_svg__a">
      <path fill="#fff" d="M0 0h85v20H0z"/>
    </clipPath>
  </defs>
</svg>
